X:1
T:Tutto'l dì piango
T:Cipriano de rore
T:Tutto'l dì piango
C:Cipriano de rore
Z:Francesco Petrarca
%%score [ 1 2 3 ]
L:1/8
Q:1/4=80
M:2/2
K:Eb
V:1 treble nm="Soprano 1" snm="S 1"
V:2 treble nm="Soprano 2" snm="S 2"
V:3 treble-8 nm="Tenor" snm="T"
V:1
 d6 d2 | d8 | e8 | c4 z2 c2- | c2 e4 e2 | B3 A GF G2 | E2 B4 =A2 | B4 F2 F2 | c3 B/A/ G2 G2 | %9
w: Tut- to’l|dí|pian-|go; e|_ poi la|not- * * * *|te, quan- do|Pren- don ri-|po- * * * so~i|
 A2 E2 F2 G2 | c8 | B4 z4 | z2 e4 d2 | d4 c4- | c2 c2 e2 d2 | e2 d2 c4 | B2 B2 c2 B2 | %17
w: mi- se- ri mor-|ta-|li,|Tro- vo-|m'in pian-|* to,e rad- dop-|pian- si~i ma-|li, e rad- dop-|
 E2 F2 G2 FE | FE E3 D D2 | E2 B4 B2 | A4 G2 A2 | F4 F4 | c4 B2 A2- | AG G4 F2 | G8 | z2 E2 E2 F2 | %26
w: pian- si~i ma- * *||li; Co- sí|spen- do’l mio|tem- po|la- gri- man-||do.|In tri- sto~hu-|
 G2 B2 A2 G2 | F2 E2 A4 | G2 EF GA B2 | A2 G2 c4 | B2 G2 F2 E2 | A3 B cdec | _dc c3 B/A/ B2 | E8 | %34
w: mor vo gli~oc- chi|con- su- man-|do, E’l _ _ _ _|cor in do-|glia, e'l cor in|do- * * * * *||glia,|
 z2 G2 B4- | B2 G2 A2 G2 | B3 A GF G2- | G2 F2 B4 | A2 A2 G2 d2- | d2 e2 d2 e2- | edcB A2 F2 | %41
w: e son|_ fra gli~a- ni-|ma- * * * *|* li L'ul-|ti- mo, sí che|_ gli~a- mo- ro-|* * * * * si|
 A4 G2 G2 | F2 G2 G2 G2 | A4 E4- | E4 z2 B2 | B2 B2 c4- | c2 c2 d4 | e4 c2 d2 | e4 d2 e2- | %49
w: stra- li, che|gli~a- mo- ro- si|stra- li|_ Mi|ten- gon ad|_ o- gni~or|di pa- ce~in|ban- do, di|
 e2 c4 c2 | _d4 c3 B | A3 G F4 | =E8- | E8 ||[Q:1/4=60] G8 | F6 E2 | F2 A2 GABc | d2 e2 e2 c2 | %58
w: _ pa- ce~in|ban- * *||do.|_|Las-|so, che|pur da l’u- * * *|* n~a l’al- tro|
 e4 d4 | z2 c4 B2- | B2 A2 G2 A2 | G3 E F2 F2 | A2 G2 z2 B2 | A2 G2 cBcd | e2 e2 B3 A | GF G4 F2 | %66
w: so- le,|las- so,|_ che pur da|l’u- n~a l’al- tro|so- le E|da l’u- na~om- * * *|* bra~a l’al- *|* * * tra,~ò|
 F2 F2 GFGA | BAFG AG G2- | GF/E/ F2 G4 | z8 | z2 B4 G2 | E2 A4 G2 | z2 B4 F2 | A2 G2 F4 | %74
w: già’l piú cor- * * *||* * * * so||Di que-|sta mor- te,|che si|chia- ma vi-|
 E4 z2 E2 | F2 A3 G/F/ G2 | A2 E3 FGA | BF A2 G2 F2 | A2 G2 c4 | B4 G2 A2 | B4 E2 B2- | %81
w: ta; che|si chia- * * *|ma vi- * * *|* * * ta; Piú|l’al- trui fal-|lo che’l mio|mal mi duo-|
 B=A/G/ A2 B2 B2- | B2 c2 FEFG | A2 G2 F4 | G6 G2 | E4 A4 | G4 G4 | z2 B2 B4- | B2 G2 A2 B2 | %89
w: * * * * le: che’l|_ mio mal _ _ _|_ mi duo-|le: Ché|Pie- tà|vi- va,|e’l mio|_ fi- do soc-|
 EFGA Bc d2- | de c3 d e2- | e2 dc B3 A | FG A3 G G2- | GF F2 B4 | z2 c4 d2 | e2 d3 cBA | %96
w: cor- * * * * * *||||* * * so,|Vè- de-|m’ar- der _ _ _|
 G2 A2 F2 G2 | G2 A2 B3 =A | B2 c2 z2 F2- | F2 F2 A4- | A2 G3 ABc | d2 e4 c2- | c2 G2 e4- | %103
w: _ nel fo- co,e|non m’a- i- *|* ta, Vè-|* de- m’ar-|* der _ _ _|_ nel fo-|* co,e non|
 e2 d2 e4 | d8- | d8 |] %106
w: _ m’a- i-|ta.|_|
V:2
 z8 | z4 G4- | G2 G2 G4 | A8- | A4 G4 | z2 G2 B2 B2 | c2 d2 e4 | d2 d2 d2 d2 | e4 B4 | c6 B2 | %10
w: |Tut-|* to’l dí|pian-|* go;|e poi la|not- te, quan-|do Pren- don ri-|po- so~i|mi- se-|
 A3 G/F/ E2 F2 | G8 | G4 z4 | z2 B4 A2 | A4 G4 | G4 z2 e2 | e2 d2 e2 d2 | c4 B2 c2 | c2 B2 A2 A2 | %19
w: ri _ _ _ mor-|ta-|li,|Tro- vo-|m'in pian-|to e|rad- dop- pian- si~i|ma- li, e|rad- dop- pian- si~i|
 G4 G4 | z2 e4 e2 | d2 d4 d2 | e4 e2 c2- | c2 B2 A4 | G2 B2 B2 c2 | edcB c2 c2 | e2 d2 c2 B2 | %27
w: ma- li;|Co- sí|spen- do’l mio|tem- po la-|* gri- man-|do. In tri- sto~hu-|mor _ _ _ _ vo|gli~oc- chi con- su-|
 A2 G3 F/E/ F2 | G8 | z4 z2 EF | GA B2 A2 G2 | F4 E2 E2 | F2 A2 A2 GF | G2 A2 G4- | G4 z4 | %35
w: man- * * * *|do,|E’l _|_ _ _ cor in|do- glia, e'l|cor in do- * *|* * glia,|_|
 z2 B2 e4- | e2 d2 e2 e2 | c4 d2 G2 | c2 c2 B4 | G4 G2 G2 | A2 A2 FGAB | cd e4 B2- | B2 B2 c4- | %43
w: e son|_ fra gli~a- ni-|ma- li L'ul-|ti- mo, sí|che gli~a- mo-|ro- si stra- * * *|* * * li,|_ che gli~a-|
 c2 c2 c3 B | A2 G2 F4 | G2 E4 E2 | E2 F4 F2 | G2 E4 B2- | B2 =A2 B4 | c2 A4 F2- | F2 G2 AGAB | %51
w: * mo- ro- *|* si stra-|li Mi ten-|gon ad o-|gni~or di pa-|* ce~in ban-|do, di pa-|* ce~in ban- * * *|
 c3 B A4 | G8- | G8 || z8 | z4 c4- | c4 B4- | B2 A2 G2 A2 | G2 E2 F2 F2 | F4 G4 | z2 c2 e2 e2 | %61
w: |do.|_||Las-|* so,|_ che pur da|l’u- n~a l’al- tro|so- le|E da l’u-|
 BABc d2 d2 | e6 d2 | c2 B2 A3 G/F/ | GE A2 GFGA | BABc d4 | z2 B2 B2 B2 | G2 B2 E2 B2 | %68
w: na~om- * * * * bra~a|l’al- tra,~ò|già’l piú cor- * *||* * * * so|E da l’u-|na~om- bra~a l’al- tra,~ò|
 c4 B2 B2- | BAFG AGGF/E/ | F4 G2 B2 | c2 c2 e4 | d8 | z4 z2 B2- | B2 c2 e3 _d/c/ | _d2 c2 B4 | %76
w: già’l piú cor-||* so Di|que- sta mor-|te,|che|_ si chia- * *|* ma vi-|
 c4 z4 | z4 c4 | c2 B2 e4- | e2 d2 e2 e2 | d3 c/B/ c2 d2 | e3 d/c/ dcBA | GF E3 D D2 | E4 z4 | B8 | %85
w: ta;|Piú|l’al- trui fal-|* lo che’l mio|mal _ _ _ mi|duo- * * * * * *||le:|Ché|
 c4 c4 | e8 | d4 z2 d2 | d2 e2 c2 d2 | e4 dcBA | G2 E2 A2 B2 | c2 e4 d2- | dc c4 B2 | c4 z2 F2- | %94
w: Pie- tà|vi-|va, e’l|mio fi- do soc-|cor- so, _ _ _|_ e’l mio fi-|do soc- cor-||so, Vè-|
 F2 G2 A4 | G3 A Bc d2 | e2 c4 B2 | e6 d2 | e4 d4 | z2 c4 c2 | e4 B4- | B2 AG A2 A2 | G6 G2 | %103
w: * de- m’ar-|der _ _ _ _|nel fo- co,e|non m’a-|i- ta,|Vè- de-|m’ar- der|_ _ _ _ nel|fo- co,e|
 G2 G2 G4 | G8- | G8 |] %106
w: non m’a- i-|ta.|_|
V:3
 z4 G4- | G2 G2 G4 | c8 | F8 | z4 c4 | e6 E2 | A2 G2 c4 | G2 G2 B2 B2 | ABcd e2 E2 | A6 E2 | %10
w: Tut-|* to’l dí|pian-|go;|e|poi la|not- te, quan-|do Pren- don ri-|po- * * * * so~i|mi- se-|
 F2 F2 A4 | G2 e4 c2 | c4 B4 | G4 z4 | F4 c2 =B2 | c2 G2 A4 | G4 z2 G2 | A4 E2 A2- | A2 G2 F4 | %19
w: ri mor- ta-|li, Tro- vo-|m'in pian-|to|e rad- dop-|pian- si~i ma-|li, e|rad- dop- pian-|* si~i ma-|
 E8 | z8 | B6 B2 | A2 A2 G2 AB | cd e2 c2 d2 | e2 e3 d c2- | cBAG A4 | G4 z4 | z2 c2 c2 d2 | %28
w: li;||Co- sí|spen- do’l mio tem- *|* * * po la-|gri- man- * *||do.|In tri- sto~hu-|
 e2 c2 e3 d | c2 B2 A4 | E4 z4 | z2 FG AB c2 | B2 F2 _d4 | c4 z2 c2 | e6 d2 | e2 e2 c4 | G4 c4 | %37
w: mor vo gli~oc- chi|con- su- man-|do,|E’l _ _ _ _|cor in do-|glia, e|son fra|gli~a- ni- ma-|li L'ul-|
 A2 A2 G4 | z8 | z8 | z8 | z2 c4 e2 | d2 e3 dcB | A2 F2 AGAB | cd e3 d d2 | e4 A4 | A2 A2 B2 B2 | %47
w: ti- mo, sí||||che gli~a-|mo- ro- * * *|* si stra- * * *||li Mi|ten- gon ad o-|
 E2 A2 A2 G2 | c4 G4 | A4 F2 F2 | B4 A2 A2 | F2 F2 FGAB | c8- | c8 || z8 | z8 | z8 | z4 c4- | %58
w: gni~or di pa- ce~in|ban- do,|di pa- ce~in|ban- do, di|pa- ce~in ban- * * *|do.|_||||Las-|
 c4 B4- | B2 A2 e2 e2 | f2 f2 c3 d | e4 B4 | c4 G4 | z8 | c4 e4- | e2 e2 BABc | d2 d2 e4- | %67
w: * so,|_ che pur da|l’u- n~a l’al- *|* tro|so- le||E da|_ l’u- na~om- * * *|* bra~a l’al-|
 e2 d2 c2 B2 | A4 EFGA | Bcde cd e2- | ed d2 e2 E2 | A2 F2 c4 | G4 z2 B2 | c2 e3 d/c/ d2 | %74
w: * tra,~ò già’l piú|cor- * * * *||* * * so Di|que- sta mor-|te, che|si chia- * * *|
 e2 A3 B c2 | B2 f2 d2 e2 | A2 AB cd e2- | ed c3 BAG | F2 G2 A4 | G4 z4 | z2 G2 A2 G2 | c4 B2 G2- | %82
w: ma vi- * *|ta; che si chia-|ma vi- * * * *|||ta;|Piú l’al- trui|fal- lo che’l|
 G2 A2 B4 | c2 e3 d d2 | e4 E4 | A4 F4 | c8 | G8 | z8 | z4 G4 | G2 A2 F2 G2 | A4 G3 A | B2 F4 G2 | %93
w: _ mio mal|mi duo- * *|le: Ché|Pie- tà|vi-|va,||e’l|mio fi- do soc-|cor- so, _|_ Vè- de-|
 A4 GABc | d2 =e2 f2 F2 | c2 G2 G4 | c2 F2 A2 G2 | c4 G2 G2 | G2 A2 B4- | B2 A2 FGAB | cBcd e4 | %101
w: m’ar- der _ _ _|_ nel fo- co,e|non m’a- i-|ta, e non m’a-|i- ta, Vè-|de- m’ar- der|_ nel fo- * * *||
 B2 c4 f2 | e3 d cB c2- | c2 B2 c4 | G8- | G8 |] %106
w: co,e non m’a-|i- * * * *||ta.|_|

